Hatter-kde-dark/actions/24/snap.svg

<?xml version="1.0" encoding="UTF-8"?>
<svg viewBox="0 0 24 24" xmlns="http://www.w3.org/2000/svg">
 <defs id="defs3051">
  <style id="current-color-scheme" type="text/css">.ColorScheme-Text {
        color:#dedede;
      }
      .ColorScheme-Highlight {
        color:#3daee9;
      }</style>
 </defs>
 <path class="ColorScheme-Text" d="m12 4a7 7 0 0 0-7 7v4h3v-4a4 4 0 0 1 4-4 4 4 0 0 1 4 4v4h3v-4a7 7 0 0 0-7-7zm-7 12v3h3v-3h-3z" fill="currentColor"/>
 <path class="ColorScheme-Highlight" d="m15 16v4h5v-4h-5zm1 1h3v2h-3v-2z" fill="currentColor"/>
</svg>

<svg xmlns="http://www.w3.org/2000/svg" viewBox="0 0 24 24">
  <defs id="defs3051">
    <style type="text/css" id="current-color-scheme">
      .ColorScheme-Text {
        color:#dedede;
      }
      .ColorScheme-Highlight {
        color:#3daee9;
      }
      </style>
  </defs>
 <path 
     style="fill:currentColor;fill-opacity:1;stroke:none" 
     d="M 12 4 A 7 7 0 0 0 5 11 L 5 15 L 8 15 L 8 11 A 4 4 0 0 1 12 7 A 4 4 0 0 1 16 11 L 16 15 L 19 15 L 19 11 A 7 7 0 0 0 12 4 z M 5 16 L 5 19 L 8 19 L 8 16 L 5 16 z "
     class="ColorScheme-Text"
     />
 <path 
     style="fill:currentColor;fill-opacity:1;stroke:none" 
     d="M 15 16 L 15 20 L 20 20 L 20 16 L 15 16 z M 16 17 L 19 17 L 19 19 L 16 19 L 16 17 z "
     class="ColorScheme-Highlight"
     />
</svg>
